flaticon/essential/video-camera-1.svg

<svg xmlns="http://www.w3.org/2000/svg" width="32" height="32" viewBox="0 0 24 24">
    <path d="M 23.296875 2.796875 C 22.867188 2.613281 22.390625 2.699219 22.054688 3.015625 L 17.261719 7.441406 L 17.261719 3.765625 C 17.261719 2.617188 16.328125 1.683594 15.179688 1.683594 L 2.082031 1.683594 C 0.933594 1.683594 0 2.617188 0 3.765625 L 0 13.5625 C 0 14.675781 0.90625 15.578125 2.015625 15.578125 L 8.238281 15.578125 L 5.390625 21.71875 C 5.292969 21.929688 5.386719 22.179688 5.597656 22.277344 C 5.652344 22.304688 5.714844 22.316406 5.773438 22.316406 C 5.929688 22.316406 6.082031 22.226562 6.15625 22.070312 L 8.898438 16.160156 L 11.640625 22.070312 C 11.710938 22.226562 11.863281 22.316406 12.023438 22.316406 C 12.082031 22.316406 12.140625 22.304688 12.199219 22.277344 C 12.410156 22.179688 12.5 21.929688 12.402344 21.71875 L 9.558594 15.578125 L 15.085938 15.578125 C 16.285156 15.578125 17.261719 14.601562 17.261719 13.402344 L 17.261719 10.03125 L 22.03125 14.585938 C 22.253906 14.808594 22.539062 14.925781 22.835938 14.925781 C 22.984375 14.925781 23.136719 14.898438 23.28125 14.835938 C 23.71875 14.65625 24 14.234375 24 13.761719 L 24 3.867188 C 24 3.394531 23.730469 2.984375 23.296875 2.796875 Z M 16.421875 13.402344 C 16.421875 14.136719 15.820312 14.738281 15.085938 14.738281 L 8.914062 14.738281 C 8.914062 14.738281 8.910156 14.738281 8.910156 14.738281 L 8.886719 14.738281 C 8.882812 14.738281 8.882812 14.738281 8.878906 14.738281 L 2.015625 14.738281 C 1.371094 14.738281 0.84375 14.210938 0.84375 13.5625 L 0.84375 3.765625 C 0.84375 3.082031 1.398438 2.527344 2.082031 2.527344 L 15.179688 2.527344 C 15.863281 2.527344 16.421875 3.082031 16.421875 3.765625 Z M 23.15625 13.761719 C 23.15625 13.960938 23.007812 14.039062 22.960938 14.058594 C 22.902344 14.082031 22.753906 14.121094 22.625 13.988281 L 17.355469 8.957031 C 17.292969 8.894531 17.261719 8.8125 17.261719 8.722656 C 17.265625 8.636719 17.300781 8.554688 17.359375 8.496094 L 22.628906 3.632812 C 22.703125 3.5625 22.777344 3.542969 22.839844 3.542969 C 22.894531 3.542969 22.941406 3.558594 22.964844 3.570312 C 23.011719 3.589844 23.15625 3.667969 23.15625 3.867188 Z M 23.15625 13.761719"/>
    <path d="M 7.636719 8.304688 C 7.867188 7.902344 8 7.441406 8 6.949219 C 8 5.4375 6.773438 4.210938 5.261719 4.210938 C 3.753906 4.210938 2.527344 5.4375 2.527344 6.949219 C 2.527344 8.457031 3.753906 9.683594 5.261719 9.683594 C 5.972656 9.683594 6.621094 9.410156 7.105469 8.964844 L 7.703125 9.5625 C 7.785156 9.644531 7.890625 9.683594 8 9.683594 C 8.109375 9.683594 8.214844 9.644531 8.296875 9.5625 C 8.460938 9.394531 8.460938 9.128906 8.296875 8.964844 Z M 5.261719 8.84375 C 4.21875 8.84375 3.367188 7.992188 3.367188 6.949219 C 3.367188 5.902344 4.21875 5.050781 5.261719 5.050781 C 6.308594 5.050781 7.15625 5.902344 7.15625 6.949219 C 7.15625 7.207031 7.105469 7.453125 7.011719 7.679688 L 6.191406 6.859375 C 6.027344 6.695312 5.761719 6.695312 5.597656 6.859375 C 5.433594 7.023438 5.433594 7.289062 5.597656 7.457031 L 6.507812 8.367188 C 6.171875 8.660156 5.742188 8.84375 5.261719 8.84375 Z M 5.261719 8.84375"/>
</svg>

<svg xmlns="http://www.w3.org/2000/svg" width="32" height="32" viewBox="0 0 24 24">
    <path d="M23.297 2.797a1.138 1.138 0 0 0-1.242.219L17.262 7.44V3.766a2.084 2.084 0 0 0-2.082-2.082H2.082A2.084 2.084 0 0 0 0 3.766v9.796c0 1.114.906 2.016 2.016 2.016h6.222l-2.847 6.14a.421.421 0 0 0 .765.352l2.742-5.91 2.743 5.91a.417.417 0 0 0 .558.207.42.42 0 0 0 .203-.558l-2.843-6.14h5.527c1.2 0 2.176-.977 2.176-2.177v-3.37l4.77 4.554a1.13 1.13 0 0 0 1.25.25c.437-.18.718-.602.718-1.074V3.867c0-.472-.27-.883-.703-1.07zm-6.875 10.605a1.34 1.34 0 0 1-1.336 1.336H8.914 2.016a1.176 1.176 0 0 1-1.172-1.175V3.765c0-.684.554-1.239 1.238-1.239H15.18c.683 0 1.242.555 1.242 1.239zm6.734.36c0 .199-.148.277-.195.297a.298.298 0 0 1-.336-.07l-5.27-5.032a.324.324 0 0 1 .004-.46l5.27-4.864a.299.299 0 0 1 .336-.063c.047.02.191.098.191.297zm0 0"/>
    <path d="M7.637 8.305C7.867 7.902 8 7.44 8 6.949a2.739 2.739 0 0 0-2.738-2.738 2.737 2.737 0 0 0 0 5.473c.71 0 1.36-.274 1.843-.72l.598.598A.413.413 0 0 0 8 9.684c.11 0 .215-.04.297-.121a.424.424 0 0 0 0-.598zm-2.375.539a1.899 1.899 0 0 1-1.895-1.895 1.9 1.9 0 0 1 1.895-1.898 1.897 1.897 0 0 1 1.75 2.629l-.82-.82a.42.42 0 0 0-.594 0 .424.424 0 0 0 0 .597l.91.91a1.884 1.884 0 0 1-1.246.477zm0 0"/>
</svg>
